X: 293
T: Kan dauqing
%%abc-version 2.0
%%abcx-abcm2ps-target-version 5.9.1 (29 Sep 2008)
%%abc-creator hum2abc beta
%%abcx-conversion-date 2013/10/02 07:52:29
%%abc-edited-by Helmut Schaffrath
%%humdrum-veritas 2797760180
%%humdrum-veritas-data 3706191445
%%continueall 1
%%barnumbers 0
L: 1/8
M: 3/8
K: D
e e f [I:setbarnb 1]| 
d c B | 
e e f | 
A3 | 
e e f | 
d c B | 
A/ B/ A E | 
D3 | 
F E D | 
d d d/ e/ | 
B A E | 
D2E | 
A A A/ B/ | 
d F E | 
D3 |]  



